X:1
T: Captain O'Neill
C:
R:Reel
Q: 232
K:G
M:4/4
L:1/8
|:ge|dG BG FG Ac|BG Bd g2 fe|dG BG FG Ac|BG AF G2 ge|
dG BG FG Ac|BG Bd g2 fe|dG BG FG Ac|BG AF G2 G2|
dg ((3gfg) ag ((3gfg) |dg ((3gfg) a2 a2|dg ((3gfg) ag fd|((3efg) fa g2 g2|
dg ((3gfg) ag ((3gfg) |dg ((3gfg) a2 ga|bg af gf ed|1((3efg) fa g2 g2:|2((3efg) fa g2||
